X:230
T:Not Worthy, Lord, to Gather Up the Crumbs
%%stretchlast false
M:4/4
L:1/4
K:Eb clef=C1
"^I"[E,B,EG]2 "^iii¹"[B,,B,DG] "^V7"[B,,A,DF] | "^vi"[C,G,E]2 "^I¹"[G,,E,EB]2 | "^IV"[A,,E,Ec] "^V"[B,,B,DB] "^vi7"[C,B,EB] "^V7¹"[D,B,FA] | "^I"[E,B,EG]4 | [E,B,EG] "^Imaj7³"[D,B,EG] "^IV¹"[C,A,EA] "^I²"[B,,G,EB] | "^IV"[A,,A,Ec]2 "^I"[E,G,EB]2 | "^ii7"[F,CEA] "^V¹"[D,B,F] "^I"[E,B,EG] "^♭v°¹"[C,E,E=A] | "^V"[B,,F,DB]4 | "^I"[E,G,EG] [E,A,EG] "^iii¹"[B,,B,DG] "^V7"[B,,A,DF] | "^vi"[C,G,E]2 "^I¹"[G,,EB] "^Imaj7¹"[G,,DEB] | "^IV"[A,,CEB] [A,,CEA]/ [B,,CEA]/ "^VI+"[C,C=EA] "^VI7"[C,B,=EG] | "^♯iii"[F,A,F]4 | "^V7³"[A,B,DF]2 "^I¹"[G,B,EG] "^V7²"[F,B,DA] | "^I"[E,B,EG] "^V7"[B,,A,DF] "^vi"[C,G,E] "^ii¹"[A,,CFA] | "^I²"[B,,B,EG]2 "^V"[B,,B,DF] "^V7"[B,,A,DF] | "^I"[E,G,E]4 |]
